assets/mongodb.svg

<?xml version="1.0" encoding="UTF-8" standalone="no"?>
<svg
   width="300"
   height="90"
   viewBox="0 0 300 90"
   fill="none"
   version="1.1"
   id="svg4293"
   sodipodi:docname="mongodb.svg"
   inkscape:version="1.1.1 (3bf5ae0d25, 2021-09-20)"
   xmlns:inkscape="http://www.inkscape.org/namespaces/inkscape"
   xmlns:sodipodi="http://sodipodi.sourceforge.net/DTD/sodipodi-0.dtd"
   xmlns="http://www.w3.org/2000/svg"
   xmlns:svg="http://www.w3.org/2000/svg">
  <defs
     id="defs4297" />
  <sodipodi:namedview
     id="namedview4295"
     pagecolor="#ffffff"
     bordercolor="#666666"
     borderopacity="1.0"
     inkscape:pageshadow="2"
     inkscape:pageopacity="0.0"
     inkscape:pagecheckerboard="0"
     showgrid="false"
     inkscape:zoom="1.7962381"
     inkscape:cx="167.01572"
     inkscape:cy="30.897909"
     inkscape:window-width="1866"
     inkscape:window-height="1016"
     inkscape:window-x="54"
     inkscape:window-y="27"
     inkscape:window-maximized="1"
     inkscape:current-layer="svg4293" />
  <g
     id="g4365"
     transform="matrix(0.26819696,0,0,0.26819696,2.2234767,7.7206226)">
    <path
       d="M 82.3229,28.6444 C 71.5367,15.8469 62.2485,2.84945 60.351,0.149971 c -0.1998,-0.1999613 -0.4995,-0.1999613 -0.6992,0 C 57.7542,2.84945 48.4661,15.8469 37.6798,28.6444 -54.9019,146.721 52.2613,226.406 52.2613,226.406 l 0.8988,0.6 C 53.959,239.303 55.9565,257 55.9565,257 h 3.9949 3.9949 c 0,0 1.9975,-17.597 2.7965,-29.994 l 0.8988,-0.7 c 0.0998,0.1 107.2634,-79.585 14.6813,-197.6616 z M 59.9514,224.606 c 0,0 -4.7938,-4.099 -6.0922,-6.198 v -0.201 L 59.6518,89.6326 c 0,-0.4 0.5993,-0.4 0.5993,0 l 5.7925,128.5744 v 0.201 c -1.2983,2.099 -6.0922,6.198 -6.0922,6.198 z"
       fill="#001e2b"
       id="path4275" />
    <path
       d="M 260.501,198.369 215.845,89.3012 215.745,89 h -34.744 v 7.3314 h 5.607 c 1.702,0 3.304,0.703 4.506,1.9082 1.201,1.2051 1.802,2.8124 1.802,4.5194 l -1.001,109.771 c 0,3.414 -2.803,6.226 -6.208,6.327 l -5.707,0.1 v 7.231 h 33.843 v -7.231 l -3.505,-0.1 c -3.404,-0.101 -6.208,-2.913 -6.208,-6.327 V 109.086 l 48.662,117.102 c 0.7,1.707 2.302,2.812 4.105,2.812 1.802,0 3.404,-1.105 4.105,-2.812 l 47.56,-114.491 0.701,100.833 c 0,3.515 -2.804,6.327 -6.308,6.427 h -3.605 v 7.231 H 339 v -7.231 h -5.407 c -3.404,0 -6.208,-2.912 -6.308,-6.327 l -0.3,-109.771 c 0,-3.5147 2.803,-6.3268 6.208,-6.4272 L 339,96.3314 V 89 h -33.843 z"
       fill="#001e2b"
       id="path4277" />
    <path
       d="m 571.869,217.046 c -1.105,-1.106 -1.707,-2.615 -1.707,-4.426 v -53.924 c 0,-10.261 -3.011,-18.31 -9.035,-24.044 -5.922,-5.735 -14.154,-8.652 -24.393,-8.652 -14.356,0 -25.699,5.835 -33.63,17.304 -0.1,0.201 -0.401,0.302 -0.702,0.302 -0.302,0 -0.502,-0.202 -0.502,-0.503 l -3.715,-14.387 h -6.224 L 476,137.871 v 5.03 h 4.116 c 1.907,0 3.513,0.503 4.618,1.51 1.104,1.006 1.706,2.515 1.706,4.627 v 63.481 c 0,1.811 -0.602,3.32 -1.706,4.427 -1.105,1.106 -2.61,1.71 -4.417,1.71 h -4.016 V 226 h 36.741 v -7.344 h -4.015 c -1.807,0 -3.313,-0.604 -4.417,-1.71 -1.104,-1.107 -1.707,-2.616 -1.707,-4.427 v -42.052 c 0,-5.332 1.205,-10.664 3.414,-15.896 2.308,-5.13 5.721,-9.456 10.239,-12.776 4.517,-3.32 9.938,-4.93 16.162,-4.93 7.027,0 12.348,2.213 15.66,6.64 3.313,4.427 5.02,10.161 5.02,17.002 v 51.912 c 0,1.81 -0.603,3.319 -1.707,4.426 -1.104,1.107 -2.61,1.71 -4.417,1.71 h -4.015 v 7.344 H 580 v -7.344 h -4.015 c -1.506,0.202 -2.912,-0.402 -4.116,-1.509 z"
       fill="#001e2b"
       id="path4279" />
    <path
       d="M 907.546,97.2119 C 897.39,91.804 886.039,89 873.792,89 H 826 v 7.3106 h 4.68 c 1.792,0 3.385,0.7011 4.978,2.3034 1.494,1.502 2.29,3.205 2.29,5.007 v 107.758 c 0,1.802 -0.796,3.505 -2.29,5.007 -1.493,1.502 -3.186,2.303 -4.978,2.303 H 826 V 226 h 47.792 c 12.247,0 23.598,-2.804 33.754,-8.212 10.155,-5.408 18.42,-13.42 24.394,-23.634 5.974,-10.215 9.06,-22.533 9.06,-36.554 0,-14.02 -3.086,-26.238 -9.06,-36.553 -6.074,-10.415 -14.239,-18.327 -24.394,-23.8351 z M 921.784,157.4 c 0,12.819 -2.29,23.634 -6.771,32.347 -4.48,8.713 -10.455,15.222 -17.823,19.429 -7.367,4.206 -15.532,6.309 -24.294,6.309 h -9.658 c -1.792,0 -3.385,-0.701 -4.978,-2.304 -1.494,-1.502 -2.29,-3.204 -2.29,-5.007 V 106.526 c 0,-1.803 0.697,-3.405 2.29,-5.008 1.493,-1.502 3.186,-2.3031 4.978,-2.3031 h 9.658 c 8.762,0 16.927,2.1031 24.294,6.3091 7.368,4.206 13.343,10.716 17.823,19.428 4.481,8.813 6.771,19.729 6.771,32.448 z"
       fill="#001e2b"
       id="path4281" />
    <path
       d="m 1053.97,164.711 c -4.42,-5.108 -12.95,-9.414 -22.98,-11.718 13.85,-6.91 20.97,-16.624 20.97,-29.142 0,-6.81 -1.8,-12.919 -5.42,-18.127 -3.61,-5.207 -8.73,-9.4134 -15.25,-12.3177 C 1024.76,90.5021 1017.13,89 1008.5,89 h -54.098 v 7.3106 h 4.316 c 1.806,0 3.412,0.7011 5.018,2.3034 1.506,1.502 2.309,3.205 2.309,5.007 v 107.758 c 0,1.802 -0.803,3.505 -2.309,5.007 -1.505,1.502 -3.212,2.303 -5.018,2.303 H 954 V 226 h 58.72 c 8.93,0 17.26,-1.502 24.79,-4.507 7.53,-3.004 13.55,-7.41 17.87,-13.219 4.41,-5.808 6.62,-12.919 6.62,-21.131 -0.1,-8.813 -2.71,-16.324 -8.03,-22.432 z m -67.349,48.57 c -1.506,-1.502 -2.309,-3.204 -2.309,-5.007 v -48.371 h 27.908 c 9.83,0 17.36,2.504 22.58,7.511 5.22,5.008 7.83,11.517 7.83,19.529 0,4.807 -1.21,9.514 -3.41,13.82 -2.31,4.407 -5.73,7.912 -10.34,10.616 -4.52,2.704 -10.14,4.106 -16.66,4.106 h -20.581 c -1.806,0 -3.412,-0.701 -5.018,-2.204 z m -2.208,-63.693 v -42.962 c 0,-1.803 0.702,-3.405 2.308,-5.008 1.506,-1.502 3.212,-2.303 5.019,-2.303 h 13.25 c 9.53,0 16.56,2.404 20.98,7.01 4.41,4.707 6.62,10.716 6.62,18.127 0,7.611 -2.11,13.72 -6.22,18.326 -4.12,4.507 -10.34,6.81 -18.57,6.81 z"
       fill="#001e2b"
       id="path4283" />
    <path
       d="M 431.999,132.388 C 424.329,128.196 415.763,126 406.5,126 c -9.263,0 -17.929,2.096 -25.499,6.388 -7.67,4.191 -13.746,10.279 -18.228,17.964 C 358.291,158.037 356,167.02 356,177 c 0,9.98 2.291,18.963 6.773,26.648 4.482,7.685 10.558,13.773 18.228,17.965 7.67,4.191 16.236,6.387 25.499,6.387 9.263,0 17.929,-2.096 25.499,-6.387 7.67,-4.192 13.746,-10.28 18.228,-17.965 C 454.709,195.963 457,186.98 457,177 c 0,-9.98 -2.291,-18.963 -6.773,-26.648 -4.482,-7.685 -10.558,-13.773 -18.228,-17.964 z M 439.37,177 c 0,12.276 -2.988,22.256 -8.965,29.442 -5.876,7.186 -13.944,10.879 -23.905,10.879 -9.96,0 -18.029,-3.693 -23.905,-10.879 -5.977,-7.186 -8.965,-17.166 -8.965,-29.442 0,-12.276 2.988,-22.256 8.965,-29.442 5.876,-7.186 13.945,-10.879 23.905,-10.879 9.961,0 18.029,3.693 23.905,10.879 5.977,7.186 8.965,17.166 8.965,29.442 z"
       fill="#001e2b"
       id="path4285" />
    <path
       d="M 784.999,132.388 C 777.329,128.196 768.763,126 759.5,126 c -9.263,0 -17.929,2.096 -25.499,6.388 -7.67,4.191 -13.746,10.279 -18.228,17.964 C 711.291,158.037 709,167.02 709,177 c 0,9.98 2.291,18.963 6.773,26.648 4.482,7.685 10.558,13.773 18.228,17.965 7.67,4.191 16.236,6.387 25.499,6.387 9.263,0 17.929,-2.096 25.499,-6.387 7.67,-4.192 13.746,-10.28 18.228,-17.965 C 807.709,195.963 810,186.98 810,177 c 0,-9.98 -2.291,-18.963 -6.773,-26.648 -4.482,-7.685 -10.658,-13.773 -18.228,-17.964 z M 792.37,177 c 0,12.276 -2.989,22.256 -8.965,29.442 -5.877,7.186 -13.945,10.879 -23.905,10.879 -9.961,0 -18.029,-3.693 -23.905,-10.879 -5.977,-7.186 -8.965,-17.166 -8.965,-29.442 0,-12.376 2.988,-22.256 8.965,-29.442 5.876,-7.186 13.944,-10.879 23.905,-10.879 9.96,0 18.028,3.693 23.905,10.879 5.877,7.186 8.965,17.166 8.965,29.442 z"
       fill="#001e2b"
       id="path4287" />
    <path
       d="m 642.64,126 c -8.026,0 -15.348,1.704 -21.969,5.113 -6.621,3.409 -11.837,8.022 -15.549,13.937 -3.711,5.815 -5.617,12.333 -5.617,19.251 0,6.216 1.404,11.931 4.313,17.045 2.809,4.913 6.621,9.023 11.436,12.432 l -14.345,19.452 c -1.806,2.406 -2.006,5.614 -0.702,8.221 1.404,2.707 4.012,4.312 7.022,4.312 h 4.113 c -4.013,2.707 -7.223,5.915 -9.43,9.725 -2.608,4.311 -3.912,8.823 -3.912,13.435 0,8.623 3.812,15.742 11.335,21.056 7.424,5.314 17.856,8.021 30.997,8.021 9.129,0 17.856,-1.504 25.781,-4.412 8.025,-2.907 14.545,-7.219 19.36,-12.833 4.916,-5.615 7.424,-12.433 7.424,-20.254 0,-8.221 -3.01,-14.037 -10.032,-19.651 -6.018,-4.713 -15.448,-7.219 -27.185,-7.219 h -40.125 c -0.1,0 -0.201,-0.101 -0.201,-0.101 0,0 -0.1,-0.2 0,-0.3 l 10.433,-14.037 c 2.809,1.303 5.417,2.105 7.724,2.606 2.407,0.502 5.116,0.702 8.125,0.702 8.427,0 16.051,-1.704 22.671,-5.113 6.621,-3.409 11.938,-8.021 15.75,-13.937 3.811,-5.815 5.717,-12.332 5.717,-19.25 0,-7.42 -3.611,-20.956 -13.442,-27.874 0,-0.1 0.101,-0.1 0.101,-0.1 L 694,138.633 v -9.926 H 659.492 C 654.075,127.003 648.458,126 642.64,126 Z m 12.037,62.765 c -3.812,2.005 -7.925,3.108 -12.037,3.108 -6.721,0 -12.64,-2.406 -17.656,-7.118 -5.015,-4.713 -7.523,-11.631 -7.523,-20.454 0,-8.823 2.508,-15.742 7.523,-20.454 5.016,-4.712 10.935,-7.119 17.656,-7.119 4.213,0 8.225,1.003 12.037,3.108 3.812,2.006 6.922,5.114 9.43,9.225 2.407,4.111 3.711,9.224 3.711,15.24 0,6.116 -1.204,11.229 -3.711,15.24 -2.408,4.111 -5.618,7.219 -9.43,9.224 z m -27.185,36.897 h 27.185 c 7.524,0 12.339,1.504 15.549,4.713 3.21,3.208 4.815,7.519 4.815,12.533 0,7.319 -2.909,13.335 -8.727,17.847 -5.819,4.512 -13.643,6.818 -23.273,6.818 -8.427,0 -15.449,-1.905 -20.565,-5.515 -5.116,-3.609 -7.724,-9.124 -7.724,-16.142 0,-4.412 1.204,-8.523 3.612,-12.132 2.407,-3.61 5.316,-6.217 9.128,-8.122 z"
       fill="#001e2b"
       id="path4289" />
    <path
       d="m 1082.35,224.327 c -1.98,-1.083 -3.47,-2.658 -4.66,-4.528 -1.09,-1.968 -1.69,-4.035 -1.69,-6.299 0,-2.264 0.6,-4.429 1.69,-6.299 1.09,-1.969 2.68,-3.445 4.66,-4.528 1.99,-1.082 4.17,-1.673 6.65,-1.673 2.48,0 4.66,0.591 6.65,1.673 1.98,1.083 3.47,2.658 4.66,4.528 1.09,1.968 1.69,4.035 1.69,6.299 0,2.264 -0.6,4.429 -1.69,6.299 -1.09,1.969 -2.68,3.445 -4.66,4.528 -1.99,1.082 -4.17,1.673 -6.65,1.673 -2.38,0 -4.66,-0.492 -6.65,-1.673 z m 12.21,-1.378 c 1.68,-0.886 2.88,-2.264 3.87,-3.839 0.89,-1.673 1.39,-3.543 1.39,-5.61 0,-2.067 -0.5,-3.937 -1.39,-5.61 -0.9,-1.673 -2.19,-2.953 -3.87,-3.839 -1.69,-0.886 -3.48,-1.378 -5.56,-1.378 -2.08,0 -3.87,0.492 -5.56,1.378 -1.68,0.886 -2.88,2.264 -3.87,3.839 -0.89,1.673 -1.39,3.543 -1.39,5.61 0,2.067 0.5,3.937 1.39,5.61 0.9,1.673 2.19,2.953 3.87,3.839 1.69,0.886 3.48,1.378 5.56,1.378 2.08,0 3.97,-0.492 5.56,-1.378 z m -10.92,-3.445 v -0.886 l 0.2,-0.098 h 0.6 c 0.19,0 0.39,-0.099 0.49,-0.197 0.2,-0.197 0.2,-0.295 0.2,-0.492 v -9.154 c 0,-0.197 -0.1,-0.393 -0.2,-0.492 -0.2,-0.197 -0.3,-0.197 -0.49,-0.197 h -0.6 l -0.2,-0.098 v -0.886 l 0.2,-0.098 h 5.16 c 1.49,0 2.58,0.295 3.47,0.984 0.9,0.689 1.29,1.575 1.29,2.756 0,0.886 -0.29,1.771 -0.99,2.362 -0.69,0.689 -1.49,1.083 -2.48,1.181 l 1.19,0.394 2.28,3.641 c 0.2,0.296 0.4,0.394 0.7,0.394 h 0.59 l 0.1,0.099 v 0.885 l -0.1,0.099 h -3.07 l -0.2,-0.099 -3.18,-5.315 h -0.79 v 3.544 c 0,0.197 0.1,0.393 0.2,0.492 0.2,0.197 0.3,0.197 0.49,0.197 h 0.6 l 0.2,0.098 v 0.886 l -0.2,0.098 h -5.26 z m 5.06,-6.496 c 0.8,0 1.49,-0.197 1.89,-0.689 0.39,-0.394 0.69,-1.083 0.69,-1.87 0,-0.788 -0.2,-1.378 -0.59,-1.87 -0.4,-0.492 -1,-0.689 -1.69,-0.689 h -0.4 c -0.2,0 -0.39,0.098 -0.49,0.197 -0.2,0.196 -0.2,0.295 -0.2,0.492 v 4.429 z"
       fill="#001e2b"
       id="path4291" />
  </g>
</svg>

<svg width="1102" height="278" viewBox="0 0 1102 278" fill="none" xmlns="http://www.w3.org/2000/svg">
<path d="M82.3229 28.6444C71.5367 15.8469 62.2485 2.84945 60.351 0.149971C60.1512 -0.0499903 59.8515 -0.0499903 59.6518 0.149971C57.7542 2.84945 48.4661 15.8469 37.6798 28.6444C-54.9019 146.721 52.2613 226.406 52.2613 226.406L53.1601 227.006C53.959 239.303 55.9565 257 55.9565 257H59.9514H63.9463C63.9463 257 65.9438 239.403 66.7428 227.006L67.6416 226.306C67.7414 226.406 174.905 146.721 82.3229 28.6444ZM59.9514 224.606C59.9514 224.606 55.1576 220.507 53.8592 218.408V218.207L59.6518 89.6326C59.6518 89.2326 60.2511 89.2326 60.2511 89.6326L66.0436 218.207V218.408C64.7453 220.507 59.9514 224.606 59.9514 224.606Z" fill="#001E2B"/>
<path d="M260.501 198.369L215.845 89.3012L215.745 89H181.001V96.3314H186.608C188.31 96.3314 189.912 97.0344 191.114 98.2396C192.315 99.4447 192.916 101.052 192.916 102.759L191.915 212.53C191.915 215.944 189.112 218.756 185.707 218.857L180 218.957V226.188H213.843V218.957L210.338 218.857C206.934 218.756 204.13 215.944 204.13 212.53V109.086L252.792 226.188C253.492 227.895 255.094 229 256.897 229C258.699 229 260.301 227.895 261.002 226.188L308.562 111.697L309.263 212.53C309.263 216.045 306.459 218.857 302.955 218.957H299.35V226.188H339V218.957H333.593C330.189 218.957 327.385 216.045 327.285 212.63L326.985 102.859C326.985 99.3443 329.788 96.5322 333.193 96.4318L339 96.3314V89H305.157L260.501 198.369Z" fill="#001E2B"/>
<path d="M571.869 217.046C570.764 215.94 570.162 214.431 570.162 212.62V158.696C570.162 148.435 567.151 140.386 561.127 134.652C555.205 128.917 546.973 126 536.734 126C522.378 126 511.035 131.835 503.104 143.304C503.004 143.505 502.703 143.606 502.402 143.606C502.1 143.606 501.9 143.404 501.9 143.103L498.185 128.716H491.961L476 137.871V142.901H480.116C482.023 142.901 483.629 143.404 484.734 144.411C485.838 145.417 486.44 146.926 486.44 149.038V212.519C486.44 214.33 485.838 215.839 484.734 216.946C483.629 218.052 482.124 218.656 480.317 218.656H476.301V226H513.042V218.656H509.027C507.22 218.656 505.714 218.052 504.61 216.946C503.506 215.839 502.903 214.33 502.903 212.519V170.467C502.903 165.135 504.108 159.803 506.317 154.571C508.625 149.441 512.038 145.115 516.556 141.795C521.073 138.475 526.494 136.865 532.718 136.865C539.745 136.865 545.066 139.078 548.378 143.505C551.691 147.932 553.398 153.666 553.398 160.507V212.419C553.398 214.229 552.795 215.738 551.691 216.845C550.587 217.952 549.081 218.555 547.274 218.555H543.259V225.899H580V218.555H575.985C574.479 218.757 573.073 218.153 571.869 217.046Z" fill="#001E2B"/>
<path d="M907.546 97.2119C897.39 91.804 886.039 89 873.792 89H826V96.3106H830.68C832.472 96.3106 834.065 97.0117 835.658 98.614C837.152 100.116 837.948 101.819 837.948 103.621V211.379C837.948 213.181 837.152 214.884 835.658 216.386C834.165 217.888 832.472 218.689 830.68 218.689H826V226H873.792C886.039 226 897.39 223.196 907.546 217.788C917.701 212.38 925.966 204.368 931.94 194.154C937.914 183.939 941 171.621 941 157.6C941 143.58 937.914 131.362 931.94 121.047C925.866 110.632 917.701 102.72 907.546 97.2119ZM921.784 157.4C921.784 170.219 919.494 181.034 915.013 189.747C910.533 198.46 904.558 204.969 897.19 209.176C889.823 213.382 881.658 215.485 872.896 215.485H863.238C861.446 215.485 859.853 214.784 858.26 213.181C856.766 211.679 855.97 209.977 855.97 208.174V106.526C855.97 104.723 856.667 103.121 858.26 101.518C859.753 100.016 861.446 99.2149 863.238 99.2149H872.896C881.658 99.2149 889.823 101.318 897.19 105.524C904.558 109.73 910.533 116.24 915.013 124.952C919.494 133.765 921.784 144.681 921.784 157.4Z" fill="#001E2B"/>
<path d="M1053.97 164.711C1049.55 159.603 1041.02 155.297 1030.99 152.993C1044.84 146.083 1051.96 136.369 1051.96 123.851C1051.96 117.041 1050.16 110.932 1046.54 105.724C1042.93 100.517 1037.81 96.3106 1031.29 93.4063C1024.76 90.5021 1017.13 89 1008.5 89H954.402V96.3106H958.718C960.524 96.3106 962.13 97.0117 963.736 98.614C965.242 100.116 966.045 101.819 966.045 103.621V211.379C966.045 213.181 965.242 214.884 963.736 216.386C962.231 217.888 960.524 218.689 958.718 218.689H954V226H1012.72C1021.65 226 1029.98 224.498 1037.51 221.493C1045.04 218.489 1051.06 214.083 1055.38 208.274C1059.79 202.466 1062 195.355 1062 187.143C1061.9 178.33 1059.29 170.819 1053.97 164.711ZM986.621 213.281C985.115 211.779 984.312 210.077 984.312 208.274V159.903H1012.22C1022.05 159.903 1029.58 162.407 1034.8 167.414C1040.02 172.422 1042.63 178.931 1042.63 186.943C1042.63 191.75 1041.42 196.457 1039.22 200.763C1036.91 205.17 1033.49 208.675 1028.88 211.379C1024.36 214.083 1018.74 215.485 1012.22 215.485H991.639C989.833 215.485 988.227 214.784 986.621 213.281ZM984.413 149.588V106.626C984.413 104.823 985.115 103.221 986.721 101.618C988.227 100.116 989.933 99.315 991.74 99.315H1004.99C1014.52 99.315 1021.55 101.719 1025.97 106.325C1030.38 111.032 1032.59 117.041 1032.59 124.452C1032.59 132.063 1030.48 138.172 1026.37 142.778C1022.25 147.285 1016.03 149.588 1007.8 149.588H984.413Z" fill="#001E2B"/>
<path d="M431.999 132.388C424.329 128.196 415.763 126 406.5 126C397.237 126 388.571 128.096 381.001 132.388C373.331 136.579 367.255 142.667 362.773 150.352C358.291 158.037 356 167.02 356 177C356 186.98 358.291 195.963 362.773 203.648C367.255 211.333 373.331 217.421 381.001 221.613C388.671 225.804 397.237 228 406.5 228C415.763 228 424.429 225.904 431.999 221.613C439.669 217.421 445.745 211.333 450.227 203.648C454.709 195.963 457 186.98 457 177C457 167.02 454.709 158.037 450.227 150.352C445.745 142.667 439.669 136.579 431.999 132.388ZM439.37 177C439.37 189.276 436.382 199.256 430.405 206.442C424.529 213.628 416.461 217.321 406.5 217.321C396.54 217.321 388.471 213.628 382.595 206.442C376.618 199.256 373.63 189.276 373.63 177C373.63 164.724 376.618 154.744 382.595 147.558C388.471 140.372 396.54 136.679 406.5 136.679C416.461 136.679 424.529 140.372 430.405 147.558C436.382 154.744 439.37 164.724 439.37 177Z" fill="#001E2B"/>
<path d="M784.999 132.388C777.329 128.196 768.763 126 759.5 126C750.237 126 741.571 128.096 734.001 132.388C726.331 136.579 720.255 142.667 715.773 150.352C711.291 158.037 709 167.02 709 177C709 186.98 711.291 195.963 715.773 203.648C720.255 211.333 726.331 217.421 734.001 221.613C741.671 225.804 750.237 228 759.5 228C768.763 228 777.429 225.904 784.999 221.613C792.669 217.421 798.745 211.333 803.227 203.648C807.709 195.963 810 186.98 810 177C810 167.02 807.709 158.037 803.227 150.352C798.745 142.667 792.569 136.579 784.999 132.388ZM792.37 177C792.37 189.276 789.381 199.256 783.405 206.442C777.528 213.628 769.46 217.321 759.5 217.321C749.539 217.321 741.471 213.628 735.595 206.442C729.618 199.256 726.63 189.276 726.63 177C726.63 164.624 729.618 154.744 735.595 147.558C741.471 140.372 749.539 136.679 759.5 136.679C769.46 136.679 777.528 140.372 783.405 147.558C789.282 154.744 792.37 164.724 792.37 177Z" fill="#001E2B"/>
<path d="M642.64 126C634.614 126 627.292 127.704 620.671 131.113C614.05 134.522 608.834 139.135 605.122 145.05C601.411 150.865 599.505 157.383 599.505 164.301C599.505 170.517 600.909 176.232 603.818 181.346C606.627 186.259 610.439 190.369 615.254 193.778L600.909 213.23C599.103 215.636 598.903 218.844 600.207 221.451C601.611 224.158 604.219 225.763 607.229 225.763H611.342C607.329 228.47 604.119 231.678 601.912 235.488C599.304 239.799 598 244.311 598 248.923C598 257.546 601.812 264.665 609.335 269.979C616.759 275.293 627.191 278 640.332 278C649.461 278 658.188 276.496 666.113 273.588C674.138 270.681 680.658 266.369 685.473 260.755C690.389 255.14 692.897 248.322 692.897 240.501C692.897 232.28 689.887 226.464 682.865 220.85C676.847 216.137 667.417 213.631 655.68 213.631H615.555C615.455 213.631 615.354 213.53 615.354 213.53C615.354 213.53 615.254 213.33 615.354 213.23L625.787 199.193C628.596 200.496 631.204 201.298 633.511 201.799C635.918 202.301 638.627 202.501 641.636 202.501C650.063 202.501 657.687 200.797 664.307 197.388C670.928 193.979 676.245 189.367 680.057 183.451C683.868 177.636 685.774 171.119 685.774 164.201C685.774 156.781 682.163 143.245 672.332 136.327C672.332 136.227 672.433 136.227 672.433 136.227L694 138.633V128.707H659.492C654.075 127.003 648.458 126 642.64 126ZM654.677 188.765C650.865 190.77 646.752 191.873 642.64 191.873C635.919 191.873 630 189.467 624.984 184.755C619.969 180.042 617.461 173.124 617.461 164.301C617.461 155.478 619.969 148.559 624.984 143.847C630 139.135 635.919 136.728 642.64 136.728C646.853 136.728 650.865 137.731 654.677 139.836C658.489 141.842 661.599 144.95 664.107 149.061C666.514 153.172 667.818 158.285 667.818 164.301C667.818 170.417 666.614 175.53 664.107 179.541C661.699 183.652 658.489 186.76 654.677 188.765ZM627.492 225.662H654.677C662.201 225.662 667.016 227.166 670.226 230.375C673.436 233.583 675.041 237.894 675.041 242.908C675.041 250.227 672.132 256.243 666.314 260.755C660.495 265.267 652.671 267.573 643.041 267.573C634.614 267.573 627.592 265.668 622.476 262.058C617.36 258.449 614.752 252.934 614.752 245.916C614.752 241.504 615.956 237.393 618.364 233.784C620.771 230.174 623.68 227.567 627.492 225.662Z" fill="#001E2B"/>
<path d="M1082.35 224.327C1080.37 223.244 1078.88 221.669 1077.69 219.799C1076.6 217.831 1076 215.764 1076 213.5C1076 211.236 1076.6 209.071 1077.69 207.201C1078.78 205.232 1080.37 203.756 1082.35 202.673C1084.34 201.591 1086.52 201 1089 201C1091.48 201 1093.66 201.591 1095.65 202.673C1097.63 203.756 1099.12 205.331 1100.31 207.201C1101.4 209.169 1102 211.236 1102 213.5C1102 215.764 1101.4 217.929 1100.31 219.799C1099.22 221.768 1097.63 223.244 1095.65 224.327C1093.66 225.409 1091.48 226 1089 226C1086.62 226 1084.34 225.508 1082.35 224.327ZM1094.56 222.949C1096.24 222.063 1097.44 220.685 1098.43 219.11C1099.32 217.437 1099.82 215.567 1099.82 213.5C1099.82 211.433 1099.32 209.563 1098.43 207.89C1097.53 206.217 1096.24 204.937 1094.56 204.051C1092.87 203.165 1091.08 202.673 1089 202.673C1086.92 202.673 1085.13 203.165 1083.44 204.051C1081.76 204.937 1080.56 206.315 1079.57 207.89C1078.68 209.563 1078.18 211.433 1078.18 213.5C1078.18 215.567 1078.68 217.437 1079.57 219.11C1080.47 220.783 1081.76 222.063 1083.44 222.949C1085.13 223.835 1086.92 224.327 1089 224.327C1091.08 224.327 1092.97 223.835 1094.56 222.949ZM1083.64 219.504V218.618L1083.84 218.52H1084.44C1084.63 218.52 1084.83 218.421 1084.93 218.323C1085.13 218.126 1085.13 218.028 1085.13 217.831V208.677C1085.13 208.48 1085.03 208.284 1084.93 208.185C1084.73 207.988 1084.63 207.988 1084.44 207.988H1083.84L1083.64 207.89V207.004L1083.84 206.906H1089C1090.49 206.906 1091.58 207.201 1092.47 207.89C1093.37 208.579 1093.76 209.465 1093.76 210.646C1093.76 211.532 1093.47 212.417 1092.77 213.008C1092.08 213.697 1091.28 214.091 1090.29 214.189L1091.48 214.583L1093.76 218.224C1093.96 218.52 1094.16 218.618 1094.46 218.618H1095.05L1095.15 218.717V219.602L1095.05 219.701H1091.98L1091.78 219.602L1088.6 214.287H1087.81V217.831C1087.81 218.028 1087.91 218.224 1088.01 218.323C1088.21 218.52 1088.31 218.52 1088.5 218.52H1089.1L1089.3 218.618V219.504L1089.1 219.602H1083.84L1083.64 219.504ZM1088.7 213.008C1089.5 213.008 1090.19 212.811 1090.59 212.319C1090.98 211.925 1091.28 211.236 1091.28 210.449C1091.28 209.661 1091.08 209.071 1090.69 208.579C1090.29 208.087 1089.69 207.89 1089 207.89H1088.6C1088.4 207.89 1088.21 207.988 1088.11 208.087C1087.91 208.283 1087.91 208.382 1087.91 208.579V213.008H1088.7Z" fill="#001E2B"/>
</svg>
